X: 2
T: Szilágysági dallam
O: Dűvő, Szilágysági
%N: https://library.hungaricana.hu/hu/view/ZTI_AP_05241-05260/
M: 2/4
L: 1/16
Q:1/4=129
K:F
V:1
f2d2d2d2| d2d2B2B2 | d4<d4 |f8|
f2d2d2d2| d2d2B2B2| c4<c4| _e8|
d6 c2| B2A2G2_G2| G4 c4| B8|
d2 d2 g2 f2| d2 B2 c2 B2| A4<G4| G8|

Q:1/4=114
K:Bb
